resources/svg/user-location-line.svg

<svg fill="currentColor" viewBox="0 0 24 24" xmlns="http://www.w3.org/2000/svg"><path d="M12 14V16C8.68629 16 6 18.6863 6 22H4C4 17.5817 7.58172 14 12 14ZM12 13C8.685 13 6 10.315 6 7C6 3.685 8.685 1 12 1C15.315 1 18 3.685 18 7C18 10.315 15.315 13 12 13ZM12 11C14.21 11 16 9.21 16 7C16 4.79 14.21 3 12 3C9.79 3 8 4.79 8 7C8 9.21 9.79 11 12 11ZM20.8284 21.0711L18 24L15.1716 21.0711C13.6095 19.4535 13.6095 16.8308 15.1716 15.2132C16.7337 13.5956 19.2663 13.5956 20.8284 15.2132C22.3905 16.8308 22.3905 19.4535 20.8284 21.0711ZM19.3897 19.6818C20.2034 18.8392 20.2034 17.4451 19.3897 16.6025C18.614 15.7992 17.386 15.7992 16.6103 16.6025C15.7966 17.4451 15.7966 18.8392 16.6103 19.6818L18 21.1209L19.3897 19.6818Z"/></svg>

<svg xmlns="http://www.w3.org/2000/svg" viewBox="0 0 24 24" fill="currentColor">
    <g>
        <path fill="none" d="M0 0h24v24H0z"/>
        <path d="M12 14v2a6 6 0 0 0-6 6H4a8 8 0 0 1 8-8zm0-1c-3.315 0-6-2.685-6-6s2.685-6 6-6 6 2.685 6 6-2.685 6-6 6zm0-2c2.21 0 4-1.79 4-4s-1.79-4-4-4-4 1.79-4 4 1.79 4 4 4zm8.828 10.071L18 24l-2.828-2.929c-1.563-1.618-1.563-4.24 0-5.858a3.904 3.904 0 0 1 5.656 0c1.563 1.618 1.563 4.24 0 5.858zm-1.438-1.39c.813-.842.813-2.236 0-3.078a1.904 1.904 0 0 0-2.78 0c-.813.842-.813 2.236 0 3.079L18 21.12l1.39-1.44z"/>
    </g>
</svg>
